X:96
T:St. Joseph's Reel
M:4/4
Z:Transcribed to abc by Mary Lou Knack
R:reel
K:D
defd cdec| defd A2ef| g2gf edcB| Aa2a abag|
defd cdec| defd A2ef|  g2gf edcB| Afec d2dA ::
Af2g fedc| BG2B g4| e2ef edcB| ea2a abag |
 Af2g fedc| BG2B g4| e2ef edcB| Afec d2dA :|
